packages/ui-icons/src/Basic/24/O-platezh_24.svg

<svg xmlns="http://www.w3.org/2000/svg" viewBox="0 0 32 32"><path d="M16 9h-4v6h-2v2h2v2h-2v2h2v2h2v-2h4v-2h-4v-2h2a4 4 0 1 0 0-8Zm0 6h-2v-4h2a2 2 0 0 1 0 4Z"/><path d="M27.8 18.12a12 12 0 1 0-6.66 8.73 5.49 5.49 0 1 0 6.66-8.73Zm-8 7.14A10 10 0 1 1 26 16a10.13 10.13 0 0 1-.08 1.2 5.48 5.48 0 0 0-6.18 8Zm4.7.74a3.5 3.5 0 1 1 1.93-6.41l-2 2.09-.57-.68-1.49 1.34L23.88 24H25l2.67-2.86A3.5 3.5 0 0 1 24.5 26Z"/></svg>

<svg id="Ready" xmlns="http://www.w3.org/2000/svg" viewBox="0 0 32 32"><title>Megaicons_work_24_1.8_cp</title><path d="M16,9H12v6H10v2h2v2H10v2h2v2h2V21h4V19H14V17h2a4,4,0,1,0,0-8Zm0,6H14V11h2a2,2,0,0,1,0,4Z"/><path d="M27.8,18.12a12,12,0,1,0-6.66,8.73,5.49,5.49,0,1,0,6.66-8.73Zm-8,7.14A10,10,0,1,1,26,16a10.13,10.13,0,0,1-.08,1.2,5.48,5.48,0,0,0-6.18,8ZM24.5,26a3.5,3.5,0,1,1,1.93-6.41l-2,2.09L23.86,21l-1.49,1.34L23.88,24H25l2.67-2.86A3.5,3.5,0,0,1,24.5,26Z"/></svg>
